X:1
T:Title
%%score { ( 1 3 ) | ( 2 4 ) }
L:1/8
Q:1/4=100
M:4/4
K:Bb
V:1 treble nm="Grand Piano"
V:3 treble 
V:2 bass 
V:4 bass 
V:1
 F3 D [DF]2 [DB]2 | [Fd]3 [B,FB] [B,EG]2 [B,GB]2 | [DF]3 D [B,DF]2 [B,FB]2 | A2 c2 c4 | %4
w: C.~C.~Converse * * *||||
 F3 D [DF]2 [DB]2 | [Fd]3 [B,FB] [B,EG]2 [B,GB]2 | [DF]3 D [B,DF]2 [B,FB]2 | [CEA]2 [Ec]2 [DB]4 | %8
w: ||||
 e3 d c2 c2 | [Fd]3 [Ec] [DB]2 [DB]2 | G2 G2 F2 [DB]2 | z4 c4 | F3 D [DF]2 [DB]2 | %13
w: |||||
 [Fd]3 [B,FB] [B,EG]2 [B,GB]2 | [DF]3 D [B,DF]2 [B,FB]2 |[M:8/4] [CEA]2 [Ec]2 [DB]4 z8 |] %16
w: |||
V:2
 [B,D]3 [B,,F,B,] [B,,B,]2 [B,,B,]2 | [B,,B,]3 D, E,2 E,2 | B,3 B, B,,2 D,2 | %3
 [F,CF]2 [F,A,F]2 [F,A,F]4 | [B,D]3 [B,,F,B,] [B,,B,]2 [B,,B,]2 | [B,,B,]3 D, E,2 E,2 | %6
 B,3 B, B,,2 D,2 | F,2 [F,A,]2 [B,,B,]4 | [F,CF]3 [F,B,F] [F,A,F]2 [F,A,F]2 | %9
 [B,,B,]3 [B,,F,] [B,,F,]2 [B,,B,]2 | [E,B,E]2 [E,B,E]2 [D,B,]2 [B,,B,]2 | z4 F2 z2 | %12
 [B,D]3 [B,,F,B,] [B,,B,]2 [B,,B,]2 | [B,,B,]3 D, E,2 E,2 | B,3 B, B,,2 D,2 | %15
[M:8/4] F,2 [F,A,]2 [B,,B,]4 z8 |] %16
V:3
 x8 | x8 | x8 | x8 | x8 | x8 | x8 | x8 | x8 | x8 | x8 | [FA]2 [Gc]2 z2 E2 | x8 | x8 | x8 | %15
[M:8/4] x16 |] %16
V:4
 x8 | x8 | x8 | x8 | x8 | x8 | x8 | x8 | x8 | x8 | x8 | [F,C]2 [=E,B,]2 [F,A,]4 | x8 | x8 | x8 | %15
[M:8/4] x16 |] %16

